public/service-3.svg

<svg width="64" height="64" viewBox="0 0 64 64" fill="none" xmlns="http://www.w3.org/2000/svg">
<g filter="url(#filter0_d_72_69)">
<path d="M39.6996 10.8H13.1996C12.7753 10.8 12.3683 10.9686 12.0682 11.2687C11.7682 11.5687 11.5996 11.9757 11.5996 12.4V51.8C11.5996 52.2244 11.7682 52.6314 12.0682 52.9314C12.3683 53.2315 12.7753 53.4001 13.1996 53.4001H39.6996C40.124 53.4001 40.5309 53.2315 40.831 52.9314C41.131 52.6314 41.2996 52.2244 41.2996 51.8V12.4C41.2996 11.9757 41.131 11.5687 40.831 11.2687C40.5309 10.9686 40.124 10.8 39.6996 10.8Z" fill="white"/>
<path d="M39.6996 10.8H13.1996C12.7753 10.8 12.3683 10.9686 12.0682 11.2687C11.7682 11.5687 11.5996 11.9757 11.5996 12.4V13.8H36.6996C37.124 13.8 37.5309 13.9686 37.831 14.2687C38.131 14.5687 38.2996 14.9757 38.2996 15.4V53.4001H39.6996C40.124 53.4001 40.5309 53.2315 40.831 52.9314C41.131 52.6314 41.2996 52.2244 41.2996 51.8V12.4C41.2996 11.9757 41.131 11.5687 40.831 11.2687C40.5309 10.9686 40.124 10.8 39.6996 10.8Z" fill="#DEE0E2"/>
<g style="mix-blend-mode:darken">
<path d="M47 16H52V48.3C52 48.5232 51.956 48.7443 51.8706 48.9506C51.7852 49.1568 51.6599 49.3442 51.5021 49.5021C51.3442 49.6599 51.1568 49.7852 50.9506 49.8706C50.7443 49.956 50.5232 50 50.3 50C49.4248 50 48.5854 49.6523 47.9665 49.0335C47.3477 48.4146 47 47.5752 47 46.7V16Z" fill="#8AD0FF"/>
</g>
<path d="M39.6996 10.8H13.1996C12.7753 10.8 12.3683 10.9686 12.0682 11.2687C11.7682 11.5687 11.5996 11.9757 11.5996 12.4V51.8C11.5996 52.2244 11.7682 52.6314 12.0682 52.9314C12.3683 53.2315 12.7753 53.4001 13.1996 53.4001H39.6996C40.124 53.4001 40.5309 53.2315 40.831 52.9314C41.131 52.6314 41.2996 52.2244 41.2996 51.8V12.4C41.2996 11.9757 41.131 11.5687 40.831 11.2687C40.5309 10.9686 40.124 10.8 39.6996 10.8ZM46.8996 16.1H52.5996V45.8C52.5996 51.7 46.8996 51.7 46.8996 45.8V16.1Z" stroke="#4D535B" stroke-width="2" stroke-miterlimit="10"/>
<path d="M56.3 31.9001L56.4 20.8001H46.9M49.7 53.4001V50.2001M18 19.4001H26.4M18 27.3001H34.9M18 32.0001H34.9M18 36.6001H34.9M18 41.3001H26.4" stroke="#4D535B" stroke-width="2" stroke-miterlimit="10"/>
</g>
<defs>
<filter id="filter0_d_72_69" x="-4" y="0" width="72" height="72" filterUnits="userSpaceOnUse" color-interpolation-filters="sRGB">
<feFlood flood-opacity="0" result="BackgroundImageFix"/>
<feColorMatrix in="SourceAlpha" type="matrix" values="0 0 0 0 0 0 0 0 0 0 0 0 0 0 0 0 0 0 127 0" result="hardAlpha"/>
<feOffset dy="4"/>
<feGaussianBlur stdDeviation="2"/>
<feComposite in2="hardAlpha" operator="out"/>
<feColorMatrix type="matrix" values="0 0 0 0 0 0 0 0 0 0 0 0 0 0 0 0 0 0 0.25 0"/>
<feBlend mode="normal" in2="BackgroundImageFix" result="effect1_dropShadow_72_69"/>
<feBlend mode="normal" in="SourceGraphic" in2="effect1_dropShadow_72_69" result="shape"/>
</filter>
</defs>
</svg>

<svg xmlns="http://www.w3.org/2000/svg" viewBox="0 0 64 64"><defs><style>.cls-5{fill:none;stroke:#4d535b;stroke-miterlimit:10;stroke-width:2px}</style></defs><g style="isolation:isolate"><g id="white"><path d="M39.7 10.8H13.2a1.6 1.6 0 00-1.6 1.6v39.4a1.6 1.6 0 001.6 1.6h26.5a1.6 1.6 0 001.6-1.6V12.4a1.6 1.6 0 00-1.6-1.6z" fill="#fff"/><path d="M39.7 10.8H13.2a1.6 1.6 0 00-1.6 1.6v1.4h25.1a1.6 1.6 0 011.6 1.6v38h1.4a1.6 1.6 0 001.6-1.6V12.4a1.6 1.6 0 00-1.6-1.6z" fill="#dee0e2"/></g><g id="flah"><path d="M47 16h5v32.3a1.7 1.7 0 01-1.7 1.7 3.3 3.3 0 01-3.3-3.3V16z" style="mix-blend-mode:darken" fill="#a1f4c0"/><path class="cls-5" d="M39.7 10.8H13.2a1.6 1.6 0 00-1.6 1.6v39.4a1.6 1.6 0 001.6 1.6h26.5a1.6 1.6 0 001.6-1.6V12.4a1.6 1.6 0 00-1.6-1.6zm7.2 5.3h5.7v29.7c0 5.9-5.7 5.9-5.7 0V16.1z"/><path class="cls-5" d="M56.3 31.9l.1-11.1h-9.5m2.8 32.6v-3.2M18 19.4h8.4M18 27.3h16.9M18 32h16.9M18 36.6h16.9M18 41.3h8.4"/></g></g></svg>
